X: 286
T: A New Strathspey Reel
R: strathspey
M: 4/4
K: Eminor
|:g|B<B TB>A G<g B>g|a>AB>G E<e e>f|g>ab<a (g<e)g>e|d>A B>G E<e e:|
|:f|g>ab>a g<b b>g|a>gb>g Ta>g e2|d>bg>b e<g B2|d>A B>G E<e e:|
|:g|(TB>G)(TA>G) (TB>G) A<g|(TB>G)A>B E<e e>f|g>bTa>g Te>d B<g|d>A B>G E<e e:|
|:f|g>G b>G a>G b>G|a>Gb>g (Ta>g) e2|d>bb>a (g/e/d) B2|d>A B>G E<e e:|

